docs/static/img/logos/redis.svg

<svg width="33" height="30" viewBox="0 0 33 30" fill="none" xmlns="http://www.w3.org/2000/svg">
<path d="M30.9612 22.6675C29.2953 23.5856 20.6654 27.3372 18.8281 28.3497C16.9908 29.3623 15.9702 29.3528 14.5188 28.6194C13.0675 27.886 3.88369 23.9637 2.22938 23.1277C1.4025 22.7098 0.967773 22.3574 0.967773 22.0241V18.6879C0.967773 18.6879 12.9238 15.936 14.8541 15.2039C16.7844 14.4719 17.4538 14.4473 19.0964 15.0817C20.7389 15.7161 30.5608 17.5915 32.1841 18.2202L32.1833 21.5088C32.1835 21.8386 31.809 22.2005 30.9612 22.6677V22.6675Z" fill="#A41E11"/>
<path d="M30.9606 19.3303C29.2947 20.248 20.6648 24 18.8275 25.0126C16.9902 26.0252 15.9696 26.0157 14.5182 25.2823C13.0669 24.5489 3.88311 20.6262 2.2288 19.7905C0.574486 18.9549 0.539802 18.379 2.16494 17.7064L14.8537 12.5125C16.7838 11.7806 17.4534 11.7558 19.096 12.3902C20.7385 13.0247 29.3173 16.6365 30.9404 17.2652C32.5635 17.8938 32.6265 18.4124 30.9588 19.3305L30.9606 19.3303Z" fill="#D82C20"/>
<path d="M30.9612 17.2281C29.2953 18.1462 20.6654 21.8978 18.8281 22.9109C16.9908 23.9241 15.9702 23.9136 14.5188 23.1801C13.0675 22.4465 3.88369 18.5244 2.22938 17.6883C1.4025 17.2704 0.967773 16.9181 0.967773 16.5851V13.2486C0.967773 13.2486 12.9238 10.4968 14.8541 9.76455C16.7844 9.03232 17.4538 9.00787 19.0964 9.64232C20.7389 10.2768 30.5608 12.1518 32.1841 12.7806L32.1833 16.0698C32.1835 16.3996 31.809 16.7613 30.9612 17.2285V17.2281Z" fill="#A41E11"/>
<path d="M30.9606 13.8907C29.2947 14.8088 20.6648 18.5604 18.8275 19.5736C16.9902 20.5867 15.9696 20.5763 14.5182 19.8427C13.0669 19.1091 3.88311 15.1868 2.2288 14.351C0.574486 13.5151 0.539802 12.9396 2.16494 12.2666L14.8537 7.07308C16.7838 6.34104 17.4534 6.3164 19.096 6.95084C20.7385 7.58529 29.3173 11.197 30.9404 11.8258C32.5635 12.4546 32.6265 12.973 30.9588 13.8911L30.9606 13.8907Z" fill="#D82C20"/>
<path d="M30.9612 11.5851C29.2953 12.5032 20.6654 16.2551 18.8281 17.2699C16.9908 18.2846 15.9702 18.2725 14.5188 17.539C13.0675 16.8054 3.88369 12.8831 2.22938 12.0472C1.4025 11.6293 0.967773 11.277 0.967773 10.944V7.60572C0.967773 7.60572 12.9238 4.85394 14.8541 4.1219C16.7844 3.38986 17.4538 3.36523 19.0964 3.99967C20.7389 4.63412 30.5608 6.50912 32.1841 7.13794L32.1833 10.427C32.1835 10.7564 31.809 11.1183 30.9612 11.5853V11.5851Z" fill="#A41E11"/>
<path d="M30.9606 8.24804C29.2947 9.16614 20.6648 12.9181 18.8275 13.9309C16.9902 14.9437 15.9696 14.9336 14.5182 14.2002C13.0669 13.4668 3.88311 9.54428 2.2288 8.70844C0.574486 7.8726 0.539802 7.29695 2.16494 6.62409L14.8537 1.43057C16.7838 0.698335 17.4534 0.673887 19.096 1.30833C20.7385 1.94278 29.3173 5.55446 30.9404 6.18328C32.5635 6.8121 32.6265 7.33032 30.9588 8.24823L30.9606 8.24804Z" fill="#D82C20"/>
<path d="M16.3772 5.15294L13.2539 4.85609L15.5844 3.96748L14.8871 2.60352L17.0708 3.50571L19.1261 2.79365L18.5701 4.20418L20.6675 5.03458L17.9627 5.33143L17.3571 6.87195L16.3772 5.15294ZM12.1455 10.2945L19.3793 9.12064L17.1956 12.5082L12.1455 10.2945Z" fill="white"/>
<path d="M10.1954 9.05975C12.3307 9.05975 14.0617 8.35031 14.0617 7.47518C14.0617 6.60006 12.3307 5.89062 10.1954 5.89062C8.0601 5.89062 6.3291 6.60006 6.3291 7.47518C6.3291 8.35031 8.0601 9.05975 10.1954 9.05975Z" fill="white"/>
<path d="M28.1439 7.24588L23.8682 9.03086V5.45508L28.1439 7.24588Z" fill="#7A0C00"/>
<path d="M23.864 5.45703V9.03282L23.3997 9.22684L19.124 7.44185L23.864 5.45703Z" fill="#AD2115"/>
</svg>

<svg xmlns="http://www.w3.org/2000/svg" width="33" height="30" fill="none" xmlns:v="https://vecta.io/nano"><path d="M30.961 22.668c-1.666.918-10.296 4.67-12.133 5.682s-2.858 1.003-4.309.27-10.635-4.656-12.289-5.492c-.827-.418-1.262-.77-1.262-1.104v-3.336s11.956-2.752 13.886-3.484 2.6-.757 4.242-.122 11.464 2.51 13.088 3.138l-.001 3.289c0 .33-.374.692-1.222 1.159h0z" fill="#a41e11"/><path d="M30.961 19.33c-1.666.918-10.296 4.67-12.133 5.682s-2.858 1.003-4.309.27-10.635-4.656-12.289-5.492-1.689-1.412-.064-2.084l12.689-5.194c1.93-.732 2.6-.757 4.242-.122s10.221 4.246 11.844 4.875 1.686 1.147.018 2.065h.002z" fill="#d82c20"/><path d="M30.961 17.228c-1.666.918-10.296 4.67-12.133 5.683s-2.858 1.003-4.309.269-10.635-4.656-12.289-5.492c-.827-.418-1.262-.77-1.262-1.103v-3.337s11.956-2.752 13.886-3.484 2.6-.757 4.242-.122 11.464 2.509 13.088 3.138l-.001 3.289c0 .33-.374.691-1.222 1.159h0z" fill="#a41e11"/><path d="M30.961 13.891c-1.666.918-10.296 4.67-12.133 5.683s-2.858 1.003-4.309.269-10.635-4.656-12.289-5.492-1.689-1.411-.064-2.084l12.689-5.194c1.93-.732 2.6-.757 4.242-.122s10.221 4.246 11.844 4.875 1.686 1.147.018 2.065h.002z" fill="#d82c20"/><path d="M30.961 11.585c-1.666.918-10.296 4.67-12.133 5.685s-2.858 1.003-4.309.269-10.635-4.656-12.289-5.492c-.827-.418-1.262-.77-1.262-1.103V7.606s11.956-2.752 13.886-3.484 2.6-.757 4.242-.122 11.464 2.509 13.088 3.138l-.001 3.289c0 .329-.374.691-1.222 1.158h0z" fill="#a41e11"/><path d="M30.961 8.248c-1.666.918-10.296 4.67-12.133 5.683s-2.858 1.003-4.309.269S3.883 9.544 2.229 8.708.54 7.297 2.165 6.624l12.689-5.194c1.93-.732 2.6-.757 4.242-.122S29.317 5.554 30.94 6.183s1.686 1.147.018 2.065h.002z" fill="#d82c20"/><path d="M16.377 5.153l-3.123-.297 2.331-.889-.697-1.364 2.184.902 2.055-.712-.556 1.411 2.097.83-2.705.297-.606 1.541-.98-1.719zm-4.232 5.142l7.234-1.174-2.184 3.388-5.05-2.214zm-1.95-1.235c2.135 0 3.866-.709 3.866-1.585S12.33 5.89 10.195 5.89s-3.866.709-3.866 1.585S8.06 9.06 10.195 9.06z" fill="#fff"/><path d="M28.144 7.246l-4.276 1.785V5.455l4.276 1.791z" fill="#7a0c00"/><path d="M23.864 5.457v3.576l-.464.194-4.276-1.785 4.74-1.985z" fill="#ad2115"/></svg>
